src/lib/packages/icons/src/assets/filled/sort-vertical.svg

<svg width="24" height="24" viewBox="0 0 24 24" fill="none" xmlns="http://www.w3.org/2000/svg">
<path d="M16.7071 13.293C17.0981 13.684 17.0981 14.3161 16.7071 14.7071L12.7071 18.7071C12.5121 18.9021 12.256 19 12 19C11.744 19 11.488 18.9021 11.293 18.7071L7.29301 14.7071C6.90201 14.3161 6.90201 13.684 7.29301 13.293C7.68401 12.902 8.31607 12.902 8.70707 13.293L12 16.586L15.293 13.293C15.684 12.902 16.3161 12.902 16.7071 13.293ZM8.70707 10.7071L12 7.4141L15.293 10.7071C15.488 10.9021 15.744 11 16 11C16.256 11 16.5121 10.9021 16.7071 10.7071C17.0981 10.3161 17.0981 9.68401 16.7071 9.29301L12.7071 5.29301C12.3161 4.90201 11.684 4.90201 11.293 5.29301L7.29301 9.29301C6.90201 9.68401 6.90201 10.3161 7.29301 10.7071C7.68401 11.0981 8.31607 11.0981 8.70707 10.7071Z" fill="currentColor"/>
</svg>

<svg xmlns="http://www.w3.org/2000/svg" width="24" height="24" fill="none"><path fill="currentColor" d="M16.707 13.293a.999.999 0 0 1 0 1.414l-4 4a.997.997 0 0 1-1.414 0l-4-4a.999.999 0 1 1 1.414-1.414L12 16.586l3.293-3.293a.999.999 0 0 1 1.414 0Zm-8-2.586L12 7.414l3.293 3.293a.997.997 0 0 0 1.414 0 .999.999 0 0 0 0-1.414l-4-4a.999.999 0 0 0-1.414 0l-4 4a.999.999 0 1 0 1.414 1.414Z"/></svg>
